icons/fill-new-office-folder-opened.svg

<svg xmlns="http://www.w3.org/2000/svg" width="32px" height="32px" viewBox="0 0 32 32" version="1.1">
    <title>fill-new-office-folder-opened</title>
    <g id="fill-new-office-folder-opened" stroke-width="1" fill-rule="evenodd">
        <path d="M29.67427,14 C30.2265548,14 30.67427,14.4477153 30.67427,15 C30.67427,15.0929165 30.6613201,15.1853797 30.635794,15.2747211 L27.2072225,27.2747211 C27.0845649,27.7040227 26.6921789,28 26.2456986,28 L5.32572998,28 C4.77344523,28 4.32572998,27.5522847 4.32572998,27 C4.32572998,26.9070835 4.3386799,26.8146203 4.36420604,26.7252789 L7.79277747,14.7252789 C7.91543505,14.2959773 8.30782105,14 8.75430141,14 L29.67427,14 Z M13.0857864,4 C13.3510029,4 13.6053568,4.10535684 13.7928932,4.29289322 L17.2071068,7.70710678 C17.3946432,7.89464316 17.6489971,8 17.9142136,8 L27,8 C27.5522847,8 28,8.44771525 28,9 L27.99973,12 L8.75430141,12 C7.47574402,12 6.34505199,12.8090454 5.92486253,14.0027382 L5.86972957,14.1758366 L2.99972998,24.221 L3,5 C3,4.44771525 3.44771525,4 4,4 L13.0857864,4 Z" id="&#24418;&#29366;" />
    </g>
</svg>

<svg xmlns="http://www.w3.org/2000/svg" viewBox="0 0 32 32"><path fill="currentColor" d="M29.674 14a1 1 0 0 1 .962 1.275l-3.429 12a1 1 0 0 1-.961.725H5.326a1 1 0 0 1-.962-1.275l3.429-12A1 1 0 0 1 8.754 14zM13.086 4a1 1 0 0 1 .707.293l3.414 3.414a1 1 0 0 0 .707.293H27a1 1 0 0 1 1 1v3H8.754a3 3 0 0 0-2.83 2.003l-.054.173L3 24.22V5a1 1 0 0 1 1-1z"/></svg>
